symbols/web/architecture/materialsymbolsrounded/architecture_wght200grad200_24px.svg

<svg xmlns="http://www.w3.org/2000/svg" height="24" width="24"><path d="m10.85 11.75-2.7 7.325q-.025.05-.15.225l-.6.55q-.225.175-.425.1-.2-.075-.25-.325L6.6 18.8q-.025-.025.025-.275l2.75-7.575q.325.275.713.5.387.225.762.3Zm2.3 0q.375-.075.763-.3.387-.225.687-.5l2.75 7.575q0 .05.025.275l-.125.825q-.025.25-.237.325-.213.075-.413-.1l-.625-.55q-.025-.025-.15-.225ZM12 10.5q-1.2 0-2.025-.825T9.15 7.65q0-1.025.575-1.75.575-.725 1.425-.975v-1.55q0-.35.237-.588.238-.237.588-.237t.587.237q.238.238.238.588v1.55q.85.25 1.45.975t.6 1.75q0 1.2-.825 2.025T12 10.5Zm0-1.65q.5 0 .85-.35t.35-.85q0-.5-.35-.85T12 6.45q-.5 0-.85.35t-.35.85q0 .5.35.85t.85.35Z"/></svg>

<svg xmlns="http://www.w3.org/2000/svg" height="24" width="24"><path d="M10.85 11.75 8.15 19.075Q8.125 19.125 8 19.3L7.4 19.85Q7.175 20.025 6.975 19.95Q6.775 19.875 6.725 19.625L6.6 18.8Q6.575 18.775 6.625 18.525L9.375 10.95Q9.7 11.225 10.088 11.45Q10.475 11.675 10.85 11.75ZM13.15 11.75Q13.525 11.675 13.913 11.45Q14.3 11.225 14.6 10.95L17.35 18.525Q17.35 18.575 17.375 18.8L17.25 19.625Q17.225 19.875 17.013 19.95Q16.8 20.025 16.6 19.85L15.975 19.3Q15.95 19.275 15.825 19.075ZM12 10.5Q10.8 10.5 9.975 9.675Q9.15 8.85 9.15 7.65Q9.15 6.625 9.725 5.9Q10.3 5.175 11.15 4.925V3.375Q11.15 3.025 11.387 2.787Q11.625 2.55 11.975 2.55Q12.325 2.55 12.562 2.787Q12.8 3.025 12.8 3.375V4.925Q13.65 5.175 14.25 5.9Q14.85 6.625 14.85 7.65Q14.85 8.85 14.025 9.675Q13.2 10.5 12 10.5ZM12 8.85Q12.5 8.85 12.85 8.5Q13.2 8.15 13.2 7.65Q13.2 7.15 12.85 6.8Q12.5 6.45 12 6.45Q11.5 6.45 11.15 6.8Q10.8 7.15 10.8 7.65Q10.8 8.15 11.15 8.5Q11.5 8.85 12 8.85Z"/></svg>
